neru-light-classic/32x32/apps/qjoypad.svg

<?xml version="1.0" encoding="UTF-8" standalone="no"?>
<svg
   xmlns:dc="http://purl.org/dc/elements/1.1/"
   xmlns:cc="http://creativecommons.org/ns#"
   xmlns:rdf="http://www.w3.org/1999/02/22-rdf-syntax-ns#"
   xmlns:svg="http://www.w3.org/2000/svg"
   xmlns="http://www.w3.org/2000/svg"
   xmlns:sodipodi="http://sodipodi.sourceforge.net/DTD/sodipodi-0.dtd"
   xmlns:inkscape="http://www.inkscape.org/namespaces/inkscape"
   width="32"
   height="32"
   viewBox="0 0 32 32"
   version="1.1"
   id="svg46"
   sodipodi:docname="qjoypad.svg"
   inkscape:version="0.92.1 r">
  <metadata
     id="metadata52">
    <rdf:RDF>
      <cc:Work
         rdf:about="">
        <dc:format>image/svg+xml</dc:format>
        <dc:type
           rdf:resource="http://purl.org/dc/dcmitype/StillImage" />
        <dc:title />
      </cc:Work>
    </rdf:RDF>
  </metadata>
  <defs
     id="defs50" />
  <sodipodi:namedview
     pagecolor="#ffffff"
     bordercolor="#666666"
     borderopacity="1"
     objecttolerance="10"
     gridtolerance="10"
     guidetolerance="10"
     inkscape:pageopacity="0"
     inkscape:pageshadow="2"
     inkscape:window-width="640"
     inkscape:window-height="480"
     id="namedview48"
     showgrid="false"
     inkscape:zoom="19"
     inkscape:cx="22.988477"
     inkscape:cy="17.097587"
     inkscape:current-layer="svg46" />
  <path
     style="opacity:1;fill:#83a7e6;fill-opacity:1;fill-rule:evenodd;stroke:none;stroke-width:1.03534329;stroke-linecap:round;stroke-linejoin:bevel;stroke-miterlimit:4;stroke-dasharray:none;stroke-dashoffset:0;stroke-opacity:1"
     d="M 19.138672 1.8984375 L 7.4726562 1.8984375 C 4.3840054 1.8984375 1.8984375 4.3840054 1.8984375 7.4726562 L 1.8984375 24.527344 C 1.8984375 27.615995 4.3840054 30.101562 7.4726562 30.101562 L 24.527344 30.101562 C 27.615995 30.101563 30.101562 27.615995 30.101562 24.527344 L 30.101562 7.4726562 C 30.101563 4.3840054 27.615995 1.8984375 24.527344 1.8984375 L 21.021484 1.8984375 C 20.571272 2.3790967 20.058335 2.8675517 19.697266 3.3378906 C 19.054486 4.1751931 18.543307 4.9973186 18.128906 5.8125 C 17.300105 7.4428629 16.858529 9.042801 16.527344 10.666016 L 15.15625 10.386719 C 15.501131 8.6963772 15.994816 6.9588806 16.898438 5.1835938 C 17.350248 4.2959503 17.903716 3.4002075 18.59375 2.4941406 C 18.743556 2.297434 18.975754 2.0959587 19.138672 1.8984375 z "
     id="path4524" />
  <path
     style="opacity:1;fill:#003870;fill-opacity:1;fill-rule:evenodd;stroke:none;stroke-width:1.03534329;stroke-linecap:round;stroke-linejoin:bevel;stroke-miterlimit:4;stroke-dasharray:none;stroke-dashoffset:0;stroke-opacity:1"
     d="M 19.138672 1.8984375 C 18.975754 2.0959587 18.743556 2.297434 18.59375 2.4941406 C 17.903716 3.4002075 17.350248 4.2959503 16.898438 5.1835938 C 15.994816 6.9588806 15.501131 8.6963772 15.15625 10.386719 L 16.527344 10.666016 C 16.858529 9.042801 17.300105 7.4428629 18.128906 5.8125 C 18.543307 4.9973186 19.054486 4.1751931 19.697266 3.3378906 C 20.058335 2.8675517 20.571272 2.3790967 21.021484 1.8984375 L 19.138672 1.8984375 z "
     id="rect4497-3-3" />
  <path
     style="opacity:1;fill:#83a7e6;fill-opacity:1;fill-rule:evenodd;stroke:none;stroke-width:1.03534329;stroke-linecap:round;stroke-linejoin:bevel;stroke-miterlimit:4;stroke-dasharray:none;stroke-dashoffset:0;stroke-opacity:1"
     d="M 26.304688 29.744141 L 24.640625 27.654297 C 22.874494 25.437366 22.803588 25.359879 22.578125 25.398438 C 21.792931 25.532719 21.03882 25.534414 20.550781 25.402344 C 19.941739 25.237484 19.256415 24.80974 18.849609 24.341797 C 18.522617 23.965665 18.129485 23.210208 18.054688 22.8125 L 18.007812 22.558594 L 15.962891 22.558594 L 13.919922 22.558594 L 13.748047 23.083984 C 13.483644 23.892459 13.030586 24.5157 12.425781 24.927734 C 11.820976 25.339769 11.065897 25.539858 10.199219 25.501953 L 9.4785156 25.470703 L 7.5058594 27.751953 C 6.4681268 28.951861 6.0261764 29.471937 5.6933594 29.744141 C 6.2587113 29.936137 6.8406809 30.101562 7.4726562 30.101562 L 24.527344 30.101562 C 25.158652 30.101563 25.739845 29.935749 26.304688 29.744141 z "
     id="path4651" />
  <path
     style="opacity:1;fill:#0061ac;fill-opacity:1;fill-rule:evenodd;stroke:none;stroke-width:1.03534329;stroke-linecap:round;stroke-linejoin:bevel;stroke-miterlimit:4;stroke-dasharray:none;stroke-dashoffset:0;stroke-opacity:1"
     d="M 30.101562 22.195312 C 30.086765 22.13329 30.072147 22.070387 30.058594 22.013672 C 29.951165 21.564127 29.493655 19.619977 29.041016 17.693359 C 28.387486 14.911665 28.157923 14.061794 27.927734 13.568359 C 27.654178 12.981957 27.302467 12.450299 26.875 11.972656 C 26.447533 11.495014 25.94341 11.071404 25.369141 10.707031 C 24.220602 9.9782863 22.786854 9.481029 21.09375 9.2324219 C 20.09496 9.0857676 11.691011 9.0874306 10.863281 9.234375 C 9.5580522 9.4660886 8.5408114 9.747515 7.6816406 10.138672 C 6.8224698 10.529829 6.120088 11.03038 5.4472656 11.699219 C 4.7699208 12.372554 4.6160628 12.577129 4.3007812 13.216797 C 3.9171911 13.995053 3.8829655 14.11823 2.5019531 19.755859 C 2.312549 20.529053 2.1113537 21.353596 1.8984375 22.222656 L 1.8984375 24.527344 C 1.8984375 26.984019 3.4956689 28.997795 5.6933594 29.744141 C 6.0261764 29.471937 6.4681268 28.951861 7.5058594 27.751953 L 9.4785156 25.470703 L 10.199219 25.501953 C 11.065897 25.539858 11.820976 25.339769 12.425781 24.927734 C 13.030586 24.5157 13.483644 23.892459 13.748047 23.083984 L 13.919922 22.558594 L 15.962891 22.558594 L 18.007812 22.558594 L 18.054688 22.8125 C 18.129485 23.210208 18.522617 23.965665 18.849609 24.341797 C 19.256415 24.80974 19.941739 25.237484 20.550781 25.402344 C 21.03882 25.534414 21.792931 25.532719 22.578125 25.398438 C 22.803588 25.359879 22.874494 25.437366 24.640625 27.654297 L 26.304688 29.744141 C 28.503314 28.998314 30.101563 26.984686 30.101562 24.527344 L 30.101562 22.195312 z M 22.554688 12.150391 C 22.9377 12.408133 23.062541 12.831095 22.890625 13.28125 C 22.777991 13.576179 22.560291 13.778737 22.302734 13.867188 C 22.045177 13.955636 21.749312 13.929548 21.480469 13.765625 C 21.193452 13.59062 21.030848 13.319522 21.003906 13.035156 C 20.976965 12.75079 21.085152 12.452647 21.333984 12.224609 C 21.682922 11.904831 22.148488 11.877042 22.554688 12.150391 z M 9.0019531 12.439453 L 10.013672 12.439453 L 11.025391 12.439453 L 11.025391 13.410156 L 11.025391 14.380859 L 12.017578 14.402344 L 13.009766 14.423828 L 13.03125 15.416016 L 13.054688 16.410156 L 12.039062 16.410156 L 11.025391 16.410156 L 11.025391 17.421875 L 11.025391 18.433594 L 10.013672 18.433594 L 9.0019531 18.433594 L 9.0019531 17.421875 L 9.0019531 16.410156 L 8.0292969 16.410156 L 7.0546875 16.410156 L 7.0546875 15.396484 L 7.0546875 14.384766 L 8.0292969 14.384766 L 9.0019531 14.384766 L 9.0019531 13.412109 L 9.0019531 12.439453 z M 14.996094 19.367188 L 16.007812 19.367188 L 17.019531 19.367188 L 17.019531 19.912109 L 17.019531 20.457031 L 16.007812 20.457031 L 14.996094 20.457031 L 14.996094 19.912109 L 14.996094 19.367188 z M 10.775391 20.427734 C 11.228506 20.504447 11.645929 20.788778 11.871094 21.253906 C 12.026325 21.574571 12.05901 21.89894 12 22.195312 C 11.94099 22.491685 11.789506 22.760219 11.580078 22.96875 C 11.37065 23.177281 11.102664 23.325673 10.806641 23.382812 C 10.510617 23.439953 10.187937 23.405847 9.8691406 23.248047 C 9.4060394 23.018818 9.1241588 22.60028 9.0488281 22.148438 C 8.9734975 21.696594 9.1045792 21.209875 9.46875 20.845703 C 9.833932 20.480522 10.322276 20.351022 10.775391 20.427734 z "
     id="path4649" />
  <path
     style="opacity:1;fill:#e6e6e6;fill-opacity:1;fill-rule:evenodd;stroke:none;stroke-width:1.03534329;stroke-linecap:round;stroke-linejoin:bevel;stroke-miterlimit:4;stroke-dasharray:none;stroke-dashoffset:0;stroke-opacity:1"
     d="M 21.134766 20.449219 C 20.718676 20.54778 20.350259 20.824896 20.142578 21.253906 C 19.955332 21.640706 19.941835 22.050918 20.072266 22.412109 C 20.202696 22.773301 20.478344 23.083793 20.873047 23.271484 C 21.324888 23.486348 21.819666 23.436696 22.21875 23.201172 C 22.617834 22.965648 22.920096 22.5444 22.990234 22.021484 C 23.042243 21.63372 22.73883 20.938725 22.419922 20.714844 C 22.01539 20.430852 21.550856 20.350657 21.134766 20.449219 z "
     id="path4646" />
  <path
     style="opacity:1;fill:#e6e6e6;fill-opacity:1;fill-rule:evenodd;stroke:none;stroke-width:1.03534329;stroke-linecap:round;stroke-linejoin:bevel;stroke-miterlimit:4;stroke-dasharray:none;stroke-dashoffset:0;stroke-opacity:1"
     d="M 21.134766 20.449219 C 21.550856 20.350657 22.01539 20.430852 22.419922 20.714844 C 22.73883 20.938725 23.042243 21.63372 22.990234 22.021484 C 22.920096 22.5444 22.617834 22.965648 22.21875 23.201172 C 21.819666 23.436696 21.324888 23.486348 20.873047 23.271484 C 20.478344 23.083793 20.202696 22.773301 20.072266 22.412109 C 19.941835 22.050918 19.955332 21.640706 20.142578 21.253906 C 20.350259 20.824896 20.718676 20.54778 21.134766 20.449219 z "
     id="path4644" />
  <path
     style="opacity:1;fill:#e6e6e6;fill-opacity:1;fill-rule:evenodd;stroke:none;stroke-width:1.03534329;stroke-linecap:round;stroke-linejoin:bevel;stroke-miterlimit:4;stroke-dasharray:none;stroke-dashoffset:0;stroke-opacity:1"
     d="M 10.775391 20.427734 C 10.322276 20.351022 9.833932 20.480522 9.46875 20.845703 C 9.1045792 21.209875 8.9734975 21.696594 9.0488281 22.148438 C 9.1241588 22.600281 9.4060394 23.018818 9.8691406 23.248047 C 10.187937 23.405847 10.510617 23.439952 10.806641 23.382812 C 11.102664 23.325673 11.37065 23.177281 11.580078 22.96875 C 11.789506 22.760219 11.94099 22.491685 12 22.195312 C 12.05901 21.89894 12.026325 21.574571 11.871094 21.253906 C 11.645929 20.788778 11.228506 20.504447 10.775391 20.427734 z "
     id="path4642" />
  <path
     style="opacity:1;fill:#e6e6e6;fill-opacity:1;fill-rule:evenodd;stroke:none;stroke-width:1.03534329;stroke-linecap:round;stroke-linejoin:bevel;stroke-miterlimit:4;stroke-dasharray:none;stroke-dashoffset:0;stroke-opacity:1"
     d="M 14.996094 19.367188 L 14.996094 19.912109 L 14.996094 20.457031 L 16.007812 20.457031 L 17.019531 20.457031 L 17.019531 19.912109 L 17.019531 19.367188 L 16.007812 19.367188 L 14.996094 19.367188 z "
     id="path4640" />
  <path
     style="opacity:1;fill:#e6e6e6;fill-opacity:1;fill-rule:evenodd;stroke:none;stroke-width:1.03534329;stroke-linecap:round;stroke-linejoin:bevel;stroke-miterlimit:4;stroke-dasharray:none;stroke-dashoffset:0;stroke-opacity:1"
     d="M 21.824219 15.966797 C 21.414357 16.02176 21.137341 16.302925 21.041016 16.640625 C 20.94469 16.978325 21.028514 17.371658 21.34375 17.648438 C 21.616239 17.887687 21.966631 17.948214 22.271484 17.863281 C 22.576338 17.778348 22.837368 17.548461 22.931641 17.207031 C 23.032141 16.843049 22.945053 16.507279 22.738281 16.275391 C 22.53151 16.043502 22.203878 15.915888 21.824219 15.966797 z "
     id="path4638" />
  <path
     style="opacity:1;fill:#e6e6e6;fill-opacity:1;fill-rule:evenodd;stroke:none;stroke-width:1.03534329;stroke-linecap:round;stroke-linejoin:bevel;stroke-miterlimit:4;stroke-dasharray:none;stroke-dashoffset:0;stroke-opacity:1"
     d="M 21.824219 15.966797 C 22.203878 15.915888 22.53151 16.043502 22.738281 16.275391 C 22.945053 16.507279 23.032141 16.843049 22.931641 17.207031 C 22.837368 17.548461 22.576338 17.778348 22.271484 17.863281 C 21.966631 17.948214 21.616239 17.887687 21.34375 17.648438 C 21.028514 17.371658 20.94469 16.978325 21.041016 16.640625 C 21.137341 16.302925 21.414357 16.02176 21.824219 15.966797 z "
     id="path4636" />
  <path
     style="opacity:1;fill:#e6e6e6;fill-opacity:1;fill-rule:evenodd;stroke:none;stroke-width:1.03534329;stroke-linecap:round;stroke-linejoin:bevel;stroke-miterlimit:4;stroke-dasharray:none;stroke-dashoffset:0;stroke-opacity:1"
     d="M 20.423828 14.0625 C 20.014996 13.85393 19.64626 13.922099 19.300781 14.267578 C 19.077394 14.49096 19.042969 14.578148 19.042969 14.912109 C 19.042969 15.357751 19.236169 15.664434 19.621094 15.832031 C 19.946086 15.973533 20.030467 15.967952 20.412109 15.783203 C 20.785745 15.602319 20.974419 15.267049 20.976562 14.929688 C 20.978706 14.592326 20.795127 14.251922 20.423828 14.0625 z "
     id="path4634" />
  <path
     style="opacity:1;fill:#e6e6e6;fill-opacity:1;fill-rule:evenodd;stroke:none;stroke-width:1.03534329;stroke-linecap:round;stroke-linejoin:bevel;stroke-miterlimit:4;stroke-dasharray:none;stroke-dashoffset:0;stroke-opacity:1"
     d="M 20.423828 14.0625 C 20.795127 14.251922 20.978706 14.592326 20.976562 14.929688 C 20.974419 15.267049 20.785745 15.602319 20.412109 15.783203 C 20.030467 15.967952 19.946086 15.973533 19.621094 15.832031 C 19.236169 15.664434 19.042969 15.357751 19.042969 14.912109 C 19.042969 14.578148 19.077394 14.49096 19.300781 14.267578 C 19.64626 13.922099 20.014996 13.85393 20.423828 14.0625 z "
     id="path4632" />
  <path
     style="opacity:1;fill:#e6e6e6;fill-opacity:1;fill-rule:evenodd;stroke:none;stroke-width:1.03534329;stroke-linecap:round;stroke-linejoin:bevel;stroke-miterlimit:4;stroke-dasharray:none;stroke-dashoffset:0;stroke-opacity:1"
     d="M 24.361328 14.023438 C 23.972566 13.861003 23.592051 13.947011 23.271484 14.267578 C 23.048097 14.49096 23.013672 14.578148 23.013672 14.912109 C 23.013672 15.357751 23.20492 15.664434 23.589844 15.832031 C 23.901046 15.967562 24.049874 15.966739 24.376953 15.830078 C 24.759602 15.670196 24.948414 15.299029 24.945312 14.927734 C 24.942211 14.556439 24.74666 14.184439 24.361328 14.023438 z "
     id="path4630" />
  <path
     style="opacity:1;fill:#e6e6e6;fill-opacity:1;fill-rule:evenodd;stroke:none;stroke-width:1.03534329;stroke-linecap:round;stroke-linejoin:bevel;stroke-miterlimit:4;stroke-dasharray:none;stroke-dashoffset:0;stroke-opacity:1"
     d="M 24.361328 14.023438 C 24.74666 14.184439 24.942211 14.556439 24.945312 14.927734 C 24.948414 15.299029 24.759602 15.670196 24.376953 15.830078 C 24.049874 15.966739 23.901046 15.967562 23.589844 15.832031 C 23.20492 15.664434 23.013672 15.357751 23.013672 14.912109 C 23.013672 14.578148 23.048097 14.49096 23.271484 14.267578 C 23.592051 13.947011 23.972566 13.861003 24.361328 14.023438 z "
     id="path4628" />
  <path
     style="opacity:1;fill:#e6e6e6;fill-opacity:1;fill-rule:evenodd;stroke:none;stroke-width:1.03534329;stroke-linecap:round;stroke-linejoin:bevel;stroke-miterlimit:4;stroke-dasharray:none;stroke-dashoffset:0;stroke-opacity:1"
     d="M 9.0019531 12.439453 L 9.0019531 13.412109 L 9.0019531 14.384766 L 8.0292969 14.384766 L 7.0546875 14.384766 L 7.0546875 15.396484 L 7.0546875 16.410156 L 8.0292969 16.410156 L 9.0019531 16.410156 L 9.0019531 17.421875 L 9.0019531 18.433594 L 10.013672 18.433594 L 11.025391 18.433594 L 11.025391 17.421875 L 11.025391 16.410156 L 12.039062 16.410156 L 13.054688 16.410156 L 13.03125 15.416016 L 13.009766 14.423828 L 12.017578 14.402344 L 11.025391 14.380859 L 11.025391 13.410156 L 11.025391 12.439453 L 10.013672 12.439453 L 9.0019531 12.439453 z "
     id="path4626" />
  <path
     style="opacity:1;fill:#e6e6e6;fill-opacity:1;fill-rule:evenodd;stroke:none;stroke-width:1.03534329;stroke-linecap:round;stroke-linejoin:bevel;stroke-miterlimit:4;stroke-dasharray:none;stroke-dashoffset:0;stroke-opacity:1"
     d="M 22.554688 12.150391 C 22.148489 11.877042 21.682922 11.904831 21.333984 12.224609 C 21.085152 12.452647 20.976965 12.75079 21.003906 13.035156 C 21.030848 13.319522 21.193452 13.59062 21.480469 13.765625 C 21.749312 13.929548 22.045177 13.955637 22.302734 13.867188 C 22.560291 13.778738 22.777991 13.576179 22.890625 13.28125 C 23.062541 12.831095 22.9377 12.408133 22.554688 12.150391 z "
     id="path4624" />
</svg>

<svg xmlns="http://www.w3.org/2000/svg" width="32" height="32"><path d="M19.139 1.898H7.473a5.561 5.561 0 0 0-5.575 5.575v17.054a5.561 5.561 0 0 0 5.575 5.575h17.054a5.561 5.561 0 0 0 5.575-5.575V7.473a5.561 5.561 0 0 0-5.575-5.575h-3.506c-.45.481-.963.97-1.324 1.44a15.816 15.816 0 0 0-1.568 2.474c-.829 1.63-1.27 3.23-1.602 4.854l-1.37-.28c.344-1.69.838-3.427 1.741-5.202a17.59 17.59 0 0 1 1.696-2.69c.15-.197.382-.398.545-.596z" fill="#83a7e6" fill-rule="evenodd"/><path d="M19.139 1.898c-.163.198-.395.4-.545.596a17.59 17.59 0 0 0-1.696 2.69c-.903 1.775-1.397 3.512-1.742 5.203l1.371.279c.332-1.623.773-3.223 1.602-4.854.414-.815.925-1.637 1.568-2.474.361-.47.874-.959 1.324-1.44H19.14z" fill="#003870" fill-rule="evenodd"/><path d="M26.305 29.744l-1.664-2.09c-1.767-2.217-1.837-2.294-2.063-2.256-.785.135-1.54.136-2.027.004-.61-.165-1.295-.592-1.701-1.06-.327-.376-.72-1.132-.795-1.53l-.047-.253H13.92l-.172.525c-.264.808-.717 1.432-1.322 1.844-.605.412-1.36.612-2.227.574l-.72-.031-1.973 2.281c-1.038 1.2-1.48 1.72-1.813 1.992.566.192 1.148.358 1.78.358h17.054c.632 0 1.213-.166 1.778-.358z" fill="#83a7e6" fill-rule="evenodd"/><path d="M30.102 22.195l-.043-.181c-.108-.45-.565-2.394-1.018-4.32-.654-2.782-.883-3.632-1.113-4.126a6.502 6.502 0 0 0-1.053-1.595 7.152 7.152 0 0 0-1.506-1.266c-1.148-.729-2.582-1.226-4.275-1.475-.999-.146-9.403-.145-10.23.002-1.306.232-2.323.514-3.182.905a7.468 7.468 0 0 0-2.235 1.56c-.677.674-.83.878-1.146 1.518-.384.778-.418.901-1.799 6.539-.19.773-.39 1.598-.604 2.467v2.304c0 2.457 1.598 4.47 3.795 5.217.333-.272.775-.792 1.813-1.992l1.973-2.281.72.031c.867.038 1.622-.162 2.227-.574.605-.412 1.058-1.036 1.322-1.844l.172-.525h4.088l.047.253c.074.398.468 1.154.795 1.53.406.468 1.092.895 1.7 1.06.489.132 1.243.13 2.028-.004.226-.038.296.04 2.063 2.256l1.664 2.09c2.198-.746 3.797-2.76 3.797-5.217v-2.332zM22.555 12.15c.383.258.508.681.336 1.131a.97.97 0 0 1-.588.586.964.964 0 0 1-.823-.101.964.964 0 0 1-.476-.73.973.973 0 0 1 .33-.811c.349-.32.814-.348 1.22-.075zm-13.553.29H11.025v1.94l.993.022.992.022.021.992.024.994H11.025v2.024H9.002V16.41H7.055v-2.025h1.947v-1.946zm5.994 6.927h2.024v1.09h-2.024v-1.09zm-4.22 1.06c.453.077.87.362 1.095.827.155.32.188.645.129.941-.059.297-.21.565-.42.774-.21.208-.477.357-.773.414a1.464 1.464 0 0 1-.938-.135 1.495 1.495 0 0 1 .906-2.82z" fill="#0061ac" fill-rule="evenodd"/><path d="M21.135 20.45a1.474 1.474 0 0 0-.992.804 1.48 1.48 0 0 0-.07 1.158c.13.361.405.672.8.86.452.214.947.165 1.346-.07.399-.236.701-.658.771-1.18.052-.388-.251-1.083-.57-1.307a1.592 1.592 0 0 0-1.285-.266z" fill="#e6e6e6" fill-rule="evenodd"/><path d="M21.135 20.45c.416-.1.88-.02 1.285.265.319.224.622.919.57 1.306a1.61 1.61 0 0 1-.771 1.18c-.4.236-.894.285-1.346.07a1.533 1.533 0 0 1-.8-.859 1.48 1.48 0 0 1 .07-1.158c.207-.43.576-.706.992-.805zM10.775 20.428a1.484 1.484 0 0 0-1.306.418 1.495 1.495 0 0 0 .4 2.402 1.464 1.464 0 0 0 1.711-.28c.21-.208.361-.476.42-.773.059-.296.026-.62-.129-.941a1.486 1.486 0 0 0-1.096-.826zM14.996 19.367v1.09h2.024v-1.09h-2.024zM21.824 15.967a.927.927 0 0 0-.783.674.972.972 0 0 0 .303 1.007c.272.24.623.3.927.215a.936.936 0 0 0 .66-.656c.101-.364.014-.7-.193-.932-.206-.231-.534-.36-.914-.308z" fill="#e6e6e6" fill-rule="evenodd"/><path d="M21.824 15.967c.38-.051.708.077.914.308.207.232.294.568.194.932a.936.936 0 0 1-.66.656.995.995 0 0 1-.928-.215.972.972 0 0 1-.303-1.007.927.927 0 0 1 .783-.674zM20.424 14.063c-.409-.21-.778-.14-1.123.205-.224.223-.258.31-.258.644 0 .446.193.752.578.92.325.142.41.136.791-.049.374-.18.562-.516.565-.853.002-.338-.182-.678-.553-.867z" fill="#e6e6e6" fill-rule="evenodd"/><path d="M20.424 14.063c.371.189.555.53.553.867-.003.337-.191.672-.565.853-.382.185-.466.19-.79.049-.386-.168-.579-.474-.579-.92 0-.334.034-.421.258-.644.345-.346.714-.414 1.123-.206zM24.361 14.023c-.388-.162-.769-.076-1.09.245-.223.223-.257.31-.257.644 0 .446.19.752.576.92.311.136.46.135.787-.002.383-.16.571-.531.568-.902-.003-.372-.198-.744-.584-.905z" fill="#e6e6e6" fill-rule="evenodd"/><path d="M24.361 14.023c.386.161.581.533.584.905.003.371-.185.742-.568.902-.327.137-.476.138-.787.002-.385-.168-.576-.474-.576-.92 0-.334.034-.421.257-.644.321-.321.702-.407 1.09-.245zM9.002 12.44V14.384H7.055v2.025h1.947v2.024H11.025V16.41H13.055l-.024-.994-.021-.992-.992-.022-.993-.021v-1.942H9.002zM22.555 12.15c-.407-.273-.872-.245-1.221.075a.973.973 0 0 0-.33.81c.027.285.19.556.476.73.27.165.565.19.823.102a.97.97 0 0 0 .588-.586c.172-.45.047-.873-.336-1.13z" fill="#e6e6e6" fill-rule="evenodd"/></svg>
